app/css/images/audio-ear.svg

<?xml version="1.0" encoding="utf-8"?>

<!-- The icon can be used freely in both personal and commercial projects with no attribution required, but always appreciated. 
You may NOT sub-license, resell, rent, redistribute or otherwise transfer the icon without express written permission from iconmonstr.com -->

<!DOCTYPE svg PUBLIC "-//W3C//DTD SVG 1.1//EN" "http://www.w3.org/Graphics/SVG/1.1/DTD/svg11.dtd">
<svg version="1.1" xmlns="http://www.w3.org/2000/svg" xmlns:xlink="http://www.w3.org/1999/xlink" x="0px" y="0px"
	 width="512px" height="512px" viewBox="0 0 512 512" enable-background="new 0 0 512 512" xml:space="preserve">
<path fill="#666" id="sound-wave-5-icon" d="M121.57,355.841c-5.332-15.4-6.375-27.855-27.125-48.989c-58.639-59.723-60.6-149.202,8.121-189.452
	c58.898-34.495,157.714,9.627,118.367,119.34l-28.238-10.127c29.053-81.013-38.1-104.916-74.967-83.326
	c-52.797,30.924-45.227,98.395-1.877,142.547c25.482,25.954,28.93,43.438,34.066,60.192c17.062,55.649,79.562,23.649,46.48-20.101
	l26.25-14.75C274.657,391.553,155.564,454.046,121.57,355.841z M162.466,237.156c14.154-14.997,20.312-32.709,16.895-48.592
	c-2.494-11.586-10.049-20.752-20.732-25.148c-11.402-4.692-22.828-4.182-33.045,1.479c-12.947,7.174-22.531,22.35-25.635,40.596
	l20.703,3.521c2.012-11.834,7.803-21.7,15.109-25.748c4.562-2.528,9.43-2.669,14.875-0.428c5.451,2.243,7.465,6.756,8.193,10.146
	c1.914,8.89-2.436,20.015-11.635,29.761c-13.367,14.162-17.379,31.819-10.73,47.231c6.969,16.163,22.684,29.37,40.016,20.203
	C194.814,279.01,191.291,244.343,162.466,237.156z M313.472,338.594l18.498-112.711l18.891,81.125
	c1.877,8.314,13.422,9.253,16.553,1.251l17.119-43.745l15.979,37.233c2.652,6.171,11.016,7.129,14.988,1.699l14.537-19.767h31.246
	v-17.364h-35.736c-2.762,0-5.381,1.33-7.01,3.559l-8.07,11.039l-18.328-42.698c-3.059-7.127-13.23-6.975-16.062,0.261
	l-14.512,37.088l-22.357-99.042c-2.117-9.367-15.518-8.842-17.039,0.518L303.62,291.453l-18.963-70.447
	c-2.117-8.415-13.992-8.892-16.682-0.552l-14.109,45.857h-36.85v17.367H260.7c3.133,0,6.533-2.538,7.422-5.543l7.023-23.733
	l21.336,84.912C298.786,348.477,311.962,347.87,313.472,338.594z"/>
</svg>

<?xml version="1.0"?>
<svg version="1.1" xmlns="http://www.w3.org/2000/svg" xmlns:xlink="http://www.w3.org/1999/xlink" width="512" height="512">
    <desc iVinci="yes" version="4.6" gridStep="20" showGrid="no" snapToGrid="no" codePlatform="0"/>
    <g id="Layer1" name="Layer 1" opacity="1">
        <g id="Shape1">
            <desc shapeID="1" type="0" basicInfo-basicType="0" basicInfo-roundedRectRadius="12" basicInfo-polygonSides="6" basicInfo-starPoints="5" bounding="rect(-205.283,-150.093,410.565,300.186)" text="" font-familyName="" font-pixelSize="20" font-bold="0" font-underline="0" font-alignment="1" strokeStyle="0" markerStart="0" markerEnd="0" shadowEnabled="0" shadowOffsetX="0" shadowOffsetY="2" shadowBlur="4" shadowOpacity="160" blurEnabled="0" blurRadius="4" transform="matrix(1,0,0,1,256,256)" pers-center="0,0" pers-size="0,0" pers-start="0,0" pers-end="0,0" locked="0" mesh="" flag=""/>
            <path id="shapePath1" d="M121.57,355.841 C116.238,340.441 115.195,327.986 94.445,306.852 C35.806,247.129 33.845,157.65 102.566,117.4 C161.464,82.905 260.28,127.027 220.933,236.74 L192.695,226.613 C221.748,145.6 154.595,121.697 117.728,143.287 C64.931,174.211 72.501,241.682 115.851,285.834 C141.333,311.788 144.781,329.272 149.917,346.026 C166.979,401.675 229.479,369.675 196.397,325.925 L222.647,311.175 C274.657,391.553 155.564,454.046 121.57,355.841 M162.466,237.156 C176.62,222.159 182.778,204.447 179.361,188.564 C176.867,176.978 169.312,167.812 158.629,163.416 C147.227,158.724 135.801,159.234 125.584,164.895 C112.637,172.069 103.053,187.245 99.949,205.491 L120.652,209.012 C122.664,197.178 128.455,187.312 135.761,183.264 C140.323,180.736 145.191,180.595 150.636,182.836 C156.087,185.079 158.101,189.592 158.829,192.982 C160.743,201.872 156.393,212.997 147.194,222.743 C133.827,236.905 129.815,254.562 136.464,269.974 C143.433,286.137 159.148,299.344 176.48,290.177 C194.814,279.01 191.291,244.343 162.466,237.156 M313.472,338.594 L331.97,225.883 L350.861,307.008 C352.738,315.322 364.283,316.261 367.414,308.259 L384.533,264.514 L400.512,301.747 C403.164,307.918 411.528,308.876 415.5,303.446 L430.037,283.679 L461.283,283.679 L461.283,266.315 L425.547,266.315 C422.785,266.315 420.166,267.645 418.537,269.874 L410.467,280.913 L392.139,238.215 C389.08,231.088 378.909,231.24 376.077,238.476 L361.565,275.564 L339.208,176.522 C337.091,167.155 323.69,167.68 322.169,177.04 L303.62,291.453 L284.657,221.006 C282.54,212.591 270.665,212.114 267.975,220.454 L253.866,266.311 L217.016,266.311 L217.016,283.678 L260.7,283.678 C263.833,283.678 267.233,281.14 268.122,278.135 L275.145,254.402 L296.481,339.314 C298.786,348.477 311.962,347.87 313.472,338.594 Z" style="stroke:none;fill-rule:nonzero;fill:#444444;fill-opacity:1;"/>
        </g>
    </g>
</svg>
